X: 17476
T: Hill Of Bruff, The
R: jig
M: 6/8
K: Dmixolydian
|:fag efd|cAG EFG|FDD cAA|dAG EFD|
fag efd|cAG EFG|FDD cAG|1 Ad^c dde:|2 Ad^cd2e||
|:fdd add|bag afd|FAd faf|ged ^cde|
[1 fdd add|bag afd|FAD cAG|Ad^c d2e:|
[2 fag efd|cAG EFG|FAD cAG|Ad^c d3||

